modules/stroke-7/icons/albums.svg

<?xml version="1.0" encoding="utf-8"?>
<!-- Generated by IcoMoon.io -->
<!DOCTYPE svg PUBLIC "-//W3C//DTD SVG 1.1//EN" "http://www.w3.org/Graphics/SVG/1.1/DTD/svg11.dtd">
<svg version="1.1" xmlns="http://www.w3.org/2000/svg" xmlns:xlink="http://www.w3.org/1999/xlink" width="32" height="32" viewBox="0 0 32 32">
<g id="icomoon-ignore">
</g>
<path d="M1.606 7.47v21.325h28.789v-21.325h-28.789zM29.328 27.729h-26.656v-19.192h26.656v19.192z" fill="#000000"></path>
<path d="M3.738 5.338h24.524v1.066h-24.524v-1.066z" fill="#000000"></path>
<path d="M5.871 3.205h20.259v1.066h-20.259v-1.066z" fill="#000000"></path>
</svg>

<svg xmlns="http://www.w3.org/2000/svg" width="32" height="32" viewBox="0 0 32 32"><path d="M1.606 7.47v21.325h28.789V7.47H1.606zm27.722 20.259H2.672V8.537h26.656v19.192zM3.738 5.338h24.524v1.066H3.738V5.338zM5.871 3.205H26.13v1.066H5.871V3.205z"/></svg>
